packages/product-components/src/images/networks/bsc.svg

<svg width="32" height="32" viewBox="0 0 32 32" fill="none" xmlns="http://www.w3.org/2000/svg">
<style>
@media (prefers-color-scheme: dark) {
    .background {
        fill: #F6F6F6;
    }
    .foreground {
        fill: #1F1F1F;
    }
}
</style>
<path class="background" d="M0 8C0 3.58172 3.58172 0 8 0H24C28.4183 0 32 3.58172 32 8V24C32 28.4183 28.4183 32 24 32H8C3.58172 32 0 28.4183 0 24V8Z" fill="#1F1F1F"/>
<path class="foreground" fill-rule="evenodd" clip-rule="evenodd" d="M22.1345 15.0575L22.122 12.3941H22.1317L19.8695 11.0624L15.993 13.3481L12.14 11.0624L9.87915 12.3941V15.0575L13.7556 17.3321V21.8923L16.0068 23.2116L18.258 21.8923V17.3321L22.1345 15.0575ZM15.9944 4.24L9.87777 7.84628L12.1289 9.17796L15.9944 6.89233L19.8709 9.17796L22.122 7.84628L15.9944 4.24ZM8.26358 20.5496L8.25117 16.0004L6.00138 14.6701V21.8937L12.129 25.4876V22.8242L8.26358 20.5496ZM8.25117 14.1022V11.4512L10.5134 10.1195L8.25117 8.78784L6 10.1195V12.7705L8.25117 14.1022ZM15.9945 8.78784L13.7433 10.1195L15.9945 11.4512L18.2567 10.1195L15.9945 8.78784ZM12.1289 18.275L9.87777 16.9433V19.6067L12.1289 20.926V18.275ZM15.9944 25.1099L13.7432 23.7782V26.4291L15.9944 27.7608L18.2566 26.4291V23.7782L15.9944 25.1099ZM23.7363 8.78784L21.4852 10.1195L23.7363 11.4512V14.1022L25.9985 12.7705V10.1195L23.7363 8.78784ZM23.7487 16.0004L23.7363 20.5496L19.8723 22.8229V25.4862L25.9999 21.8923V14.6687L23.7487 16.0004ZM22.1221 19.6067L19.8709 20.926V18.275L22.1221 16.9433V19.6067Z" fill="#F6F6F6"/>
</svg>

<svg xmlns="http://www.w3.org/2000/svg" width="32" height="32" viewBox="0 0 32 32" fill="none">
    <path class="bg" fill="#1F1F1F" d="M0 8a8 8 0 0 1 8-8h16a8 8 0 0 1 8 8v16a8 8 0 0 1-8 8H8a8 8 0 0 1-8-8z"/>
    <path class="fg" fill="#F6F6F6" fill-rule="evenodd" d="m22.135 15.058-.013-2.664h.01l-2.263-1.332-3.876 2.286-3.853-2.286-2.26 1.332v2.663l3.876 2.275v4.56l2.25 1.32 2.252-1.32v-4.56zM15.994 4.24 9.877 7.846l2.25 1.332 3.866-2.286 3.877 2.286 2.251-1.332zM8.263 20.55 8.25 16 6 14.67v7.224l6.128 3.594v-2.664zm-.013-6.448v-2.65l2.262-1.332L8.25 8.788 6 10.12v2.65zm7.744-5.314-2.252 1.332 2.252 1.331 2.262-1.332zm-3.866 9.487-2.251-1.332v2.664l2.25 1.319zm3.865 6.835-2.25-1.332v2.651l2.25 1.332 2.263-1.332v-2.65zm7.742-16.322-2.25 1.332 2.25 1.331v2.651l2.262-1.332v-2.65zM23.75 16l-.013 4.55-3.864 2.273v2.663L26 21.892V14.67zm-1.627 3.607-2.251 1.319v-2.651l2.251-1.332z" clip-rule="evenodd"/>
</svg>
